src/lib/packages/icons/src/assets/filled/compass-needle.svg

<svg width="24" height="24" viewBox="0 0 24 24" fill="none" xmlns="http://www.w3.org/2000/svg">
<path d="M18.53 3.12792L9.79499 6.52807C8.33499 7.09607 7.17899 8.24807 6.60499 9.70507L3.132 18.5229C2.549 20.0019 4.021 21.46 5.494 20.864L14.277 17.31C15.695 16.736 16.818 15.609 17.386 14.188L20.867 5.48803C21.454 4.01703 20.005 2.55392 18.53 3.12792ZM12 13.25C11.31 13.25 10.75 12.69 10.75 12C10.75 11.31 11.31 10.75 12 10.75C12.69 10.75 13.25 11.31 13.25 12C13.25 12.69 12.69 13.25 12 13.25Z" fill="currentColor"/>
</svg>

<svg xmlns="http://www.w3.org/2000/svg" width="24" height="24" fill="none"><path fill="currentColor" d="m18.53 3.128-8.735 3.4a5.618 5.618 0 0 0-3.19 3.177l-3.473 8.818c-.583 1.479.889 2.937 2.362 2.341l8.783-3.554a5.618 5.618 0 0 0 3.109-3.122l3.481-8.7c.587-1.471-.862-2.934-2.337-2.36ZM12 13.25a1.25 1.25 0 1 1 0-2.5 1.25 1.25 0 0 1 0 2.5Z"/></svg>
